X:1
C: J. Turle
M: none
L:1/2
%%staves [(S A) (T B)]
K:Eb
V:S clef=treble
E2 | F A | G2 || B2 | c G | B > A | G2 |]
V:A clef=treble
E2 | E E | E2 || E2 | C E | E D | E2 |]
V:T clef=bass octave=-1
G2 | A c | B2 || E2 | E E | F B | B2 |]
V:B clef=bass octave=-1
E2 | E E | E2 || G,2 | A, C | B, B, | E2 |]
